flaticon/transport/satellite.svg

<svg xmlns="http://www.w3.org/2000/svg" width="32" height="32" viewBox="0 0 24 24">
    <path d="M 23.621094 11.894531 L 19.964844 7.859375 C 19.671875 7.566406 19.292969 7.398438 18.914062 7.398438 L 15.046875 7.398438 C 14.375 7.398438 13.871094 7.945312 13.871094 8.574219 L 13.871094 15.003906 L 10.367188 15.003906 L 8.867188 11.390625 C 8.753906 11.117188 8.59375 10.878906 8.40625 10.675781 L 8.40625 8.472656 C 8.53125 8.484375 8.660156 8.492188 8.785156 8.492188 C 9.835938 8.492188 10.84375 8.070312 11.601562 7.3125 L 11.894531 7.019531 L 9.394531 4.519531 L 11.644531 2.269531 C 11.8125 2.101562 11.8125 1.847656 11.644531 1.679688 C 11.472656 1.511719 11.222656 1.511719 11.054688 1.679688 L 8.804688 3.929688 L 6.304688 1.429688 L 5.96875 1.679688 C 5.210938 2.4375 4.792969 3.40625 4.792969 4.496094 C 4.792969 4.992188 4.878906 5.460938 5.042969 5.898438 L 5.042969 10.675781 C 4.855469 10.878906 4.699219 11.117188 4.582031 11.390625 L 3.082031 15.003906 L 0 15.003906 L 0 19.039062 C 0 19.585938 0.460938 20.050781 1.007812 20.050781 L 1.289062 20.050781 C 1.492188 21.484375 2.707031 22.570312 4.203125 22.570312 C 5.699219 22.570312 6.914062 21.484375 7.117188 20.050781 L 16 20.050781 C 16.203125 21.484375 17.417969 22.570312 18.914062 22.570312 C 20.410156 22.570312 21.625 21.484375 21.828125 20.050781 L 22.949219 20.050781 C 23.496094 20.050781 23.957031 19.585938 24 19.039062 L 24 12.863281 C 24 12.484375 23.875 12.148438 23.621094 11.894531 Z M 22.949219 12.484375 L 16.8125 12.484375 L 16.8125 8.28125 L 18.914062 8.28125 C 19.082031 8.28125 19.207031 8.320312 19.335938 8.449219 Z M 6.304688 2.648438 L 10.675781 7.019531 C 9.890625 7.613281 8.898438 7.792969 7.984375 7.539062 C 7.507812 7.382812 7.066406 7.160156 6.6875 6.808594 C 6.660156 6.78125 6.628906 6.753906 6.597656 6.726562 C 6.5625 6.6875 6.523438 6.648438 6.488281 6.609375 C 6.457031 6.574219 6.429688 6.542969 6.402344 6.507812 C 6.398438 6.503906 6.394531 6.5 6.390625 6.496094 C 5.929688 5.945312 5.675781 5.273438 5.675781 4.539062 C 5.675781 3.824219 5.882812 3.195312 6.304688 2.648438 Z M 5.96875 7.3125 C 6.441406 7.785156 6.988281 8.109375 7.566406 8.296875 L 7.566406 10.113281 C 7.476562 10.078125 7.382812 10.050781 7.285156 10.027344 C 7.136719 9.988281 6.976562 9.96875 6.816406 9.964844 C 6.785156 9.960938 6.757812 9.960938 6.726562 9.960938 C 6.695312 9.960938 6.664062 9.960938 6.632812 9.964844 C 6.472656 9.96875 6.316406 9.988281 6.164062 10.027344 C 6.070312 10.050781 5.976562 10.078125 5.882812 10.113281 L 5.882812 7.226562 C 5.914062 7.253906 5.941406 7.285156 5.96875 7.3125 Z M 5.378906 11.726562 C 5.589844 11.140625 6.132812 10.804688 6.71875 10.800781 C 6.730469 10.800781 6.746094 10.804688 6.757812 10.804688 C 6.765625 10.804688 6.769531 10.804688 6.777344 10.804688 C 7.109375 10.820312 7.4375 10.945312 7.691406 11.179688 L 7.816406 11.292969 C 7.921875 11.414062 8.011719 11.5625 8.070312 11.726562 L 9.457031 15.003906 L 3.992188 15.003906 Z M 4.203125 21.730469 C 3.027344 21.730469 2.101562 20.804688 2.101562 19.628906 C 2.101562 18.453125 3.027344 17.527344 4.203125 17.527344 C 5.378906 17.527344 6.304688 18.453125 6.304688 19.628906 C 6.304688 20.804688 5.378906 21.730469 4.203125 21.730469 Z M 18.914062 21.730469 C 17.738281 21.730469 16.8125 20.804688 16.8125 19.628906 C 16.8125 18.453125 17.738281 17.527344 18.914062 17.527344 C 20.089844 17.527344 21.015625 18.453125 21.015625 19.628906 C 21.015625 20.804688 20.089844 21.730469 18.914062 21.730469 Z M 22.949219 19.207031 L 21.828125 19.207031 C 21.625 17.773438 20.410156 16.6875 18.914062 16.6875 C 18.90625 16.6875 18.902344 16.6875 18.894531 16.6875 C 18.886719 16.6875 18.878906 16.6875 18.871094 16.6875 C 17.402344 16.6875 16.183594 17.78125 15.972656 19.207031 L 7.117188 19.207031 C 6.925781 17.863281 5.847656 16.824219 4.480469 16.699219 C 4.46875 16.699219 4.460938 16.699219 4.449219 16.695312 C 4.414062 16.695312 4.378906 16.691406 4.34375 16.691406 C 4.296875 16.6875 4.25 16.6875 4.203125 16.6875 C 4.15625 16.6875 4.109375 16.6875 4.0625 16.691406 C 4.027344 16.691406 3.992188 16.695312 3.957031 16.695312 C 3.945312 16.699219 3.9375 16.699219 3.925781 16.699219 C 2.558594 16.824219 1.480469 17.863281 1.289062 19.207031 L 1.007812 19.207031 C 0.925781 19.207031 0.839844 19.125 0.839844 19.039062 L 0.839844 15.847656 L 14.710938 15.847656 L 14.710938 8.617188 C 14.710938 8.40625 14.878906 8.28125 15.046875 8.28125 L 15.972656 8.28125 L 15.972656 12.609375 C 15.972656 12.988281 16.308594 13.324219 16.6875 13.324219 L 23.117188 13.324219 L 23.117188 14.585938 L 21.015625 14.585938 C 20.761719 14.585938 20.59375 14.753906 20.59375 15.003906 C 20.59375 15.257812 20.761719 15.425781 21.015625 15.425781 L 23.117188 15.425781 L 23.117188 19.039062 C 23.117188 19.125 23.035156 19.207031 22.949219 19.207031 Z M 22.949219 19.207031"/>
    <path d="M4.203125 18.789062C3.742188 18.789062 3.363281 19.167969 3.363281 19.628906 3.363281 20.089844 3.742188 20.46875 4.203125 20.46875 4.664062 20.46875 5.042969 20.089844 5.042969 19.628906 5.042969 19.167969 4.664062 18.789062 4.203125 18.789062zM18.914062 18.789062C18.453125 18.789062 18.074219 19.167969 18.074219 19.628906 18.074219 20.089844 18.453125 20.46875 18.914062 20.46875 19.375 20.46875 19.753906 20.089844 19.753906 19.628906 19.753906 19.167969 19.375 18.789062 18.914062 18.789062zM6.726562 12.0625C6.472656 12.0625 6.304688 12.230469 6.304688 12.484375 6.304688 12.734375 6.472656 12.902344 6.726562 12.902344 6.976562 12.902344 7.144531 12.734375 7.144531 12.484375 7.144531 12.230469 6.976562 12.0625 6.726562 12.0625zM6.726562 12.0625"/>
</svg>

<svg xmlns="http://www.w3.org/2000/svg" width="32" height="32" viewBox="0 0 24 24">
    <path d="M23.621 11.895l-3.656-4.036a1.505 1.505 0 0 0-1.05-.46h-3.868c-.672 0-1.176.546-1.176 1.175v6.43h-3.504l-1.5-3.613a2.418 2.418 0 0 0-.46-.715V8.473c.124.011.253.02.378.02 1.05 0 2.059-.423 2.817-1.18l.293-.293-2.5-2.5 2.25-2.25a.408.408 0 0 0 0-.59.408.408 0 0 0-.59 0l-2.25 2.25-2.5-2.5-.336.25a3.908 3.908 0 0 0-1.176 2.816c0 .496.086.965.25 1.402v4.778a2.499 2.499 0 0 0-.461.715l-1.5 3.613H0v4.035c0 .547.46 1.012 1.008 1.012h.281a2.925 2.925 0 0 0 2.914 2.52 2.925 2.925 0 0 0 2.914-2.52H16a2.925 2.925 0 0 0 2.914 2.52 2.925 2.925 0 0 0 2.914-2.52h1.121c.547 0 1.008-.465 1.051-1.012v-6.176c0-.379-.125-.715-.379-.968zm-.672.59h-6.137V8.28h2.102c.168 0 .293.04.422.168zM6.305 2.647l4.37 4.372a3.084 3.084 0 0 1-2.69.52c-.477-.157-.919-.38-1.298-.731a1.873 1.873 0 0 0-.09-.082c-.035-.04-.074-.079-.109-.118a1.978 1.978 0 0 1-.086-.101l-.011-.012a3.01 3.01 0 0 1-.715-1.957c0-.715.207-1.344.629-1.89zm-.336 4.665c.472.472 1.02.796 1.597.984v1.816a2.14 2.14 0 0 0-.28-.086 2.055 2.055 0 0 0-.47-.062c-.03-.004-.058-.004-.09-.004-.03 0-.062 0-.093.004-.16.004-.317.023-.469.062-.094.024-.187.051-.281.086V7.227c.031.027.058.058.086.085zm-.59 4.414c.21-.586.754-.922 1.34-.926.011 0 .027.004.039.004h.02c.331.015.66.14.913.375l.125.113c.106.121.196.27.254.434l1.387 3.277H3.992zM4.203 21.73a2.083 2.083 0 0 1-2.101-2.101c0-1.176.925-2.102 2.101-2.102s2.102.926 2.102 2.102a2.083 2.083 0 0 1-2.102 2.101zm14.711 0a2.083 2.083 0 0 1-2.102-2.101c0-1.176.926-2.102 2.102-2.102 1.176 0 2.102.926 2.102 2.102a2.083 2.083 0 0 1-2.102 2.101zm4.035-2.523h-1.12a2.925 2.925 0 0 0-2.915-2.52h-.043c-1.469 0-2.687 1.094-2.898 2.52H7.117a2.924 2.924 0 0 0-2.637-2.508c-.011 0-.02 0-.03-.004-.036 0-.071-.004-.106-.004-.047-.003-.094-.003-.14-.003-.048 0-.095 0-.141.003-.036 0-.07.004-.106.004-.012.004-.02.004-.031.004a2.924 2.924 0 0 0-2.637 2.508h-.281c-.082 0-.168-.082-.168-.168v-3.191h13.87v-7.23a.33.33 0 0 1 .337-.337h.926v4.328c0 .38.336.715.714.715h6.43v1.262h-2.101c-.254 0-.422.168-.422.418 0 .254.168.422.422.422h2.101v3.613a.178.178 0 0 1-.168.168zm0 0"/>
    <path d="M4.203 18.79c-.46 0-.84.378-.84.839 0 .46.38.84.84.84.461 0 .84-.38.84-.84 0-.461-.379-.84-.84-.84zm0 0M18.914 18.79c-.46 0-.84.378-.84.839 0 .46.38.84.84.84.461 0 .84-.38.84-.84 0-.461-.379-.84-.84-.84zm0 0M6.727 12.063c-.254 0-.422.167-.422.421 0 .25.168.418.422.418.25 0 .418-.168.418-.418 0-.254-.168-.421-.418-.421zm0 0"/>
</svg>
